X:79
T:Open The Door For Three
R:slip jig
Z:hn-slipjig-79
M:9/8
L:1/8
K:G
G2c BGB AFD | G2c BGB c2d | e/f/ge dcB AFD |1 E2c BcA G2D :|2 E2c BcA G2d ||
|: gdB gdB AFD | gfe def g2d | e/f/ge dcB AFD |1 E2c BcA G2d :|2 E2c BcA G2D || 

